X:1
T:Title
%%score ( 1 2 ) { 3 | 4 }
L:1/8
Q:1/4=112
M:4/4
K:G
V:1 treble nm="Grand Piano, Unnamed-000"
V:2 treble 
V:3 bass nm="Choir Pad, Old 100th, LM"
V:4 bass 
V:1
 [DG]4 [DG]2 [DF]2 | [CE]2 [B,D]2 [B,G]4 | [DA]4 [DB]4 | [DB]4 [DB]2 [DB]2 | [DA]2 [B,G]2 [Ec]4 | %5
w: By~Attributed~to~Louis~Bourgeois,~1551 * *|||||
 [DB]4 [DA]4 | G4 [DA]2 [DB]2 | [DA]2 [DG]2 [CE]4 | [CF]4 [DG]4 | [Dd]4 [DB]2 G2 | z2 c2 z4 | %11
w: ||||||
 [FA]4 [B,G]4- | [B,G]4 z4 |] %13
w: ||
V:2
 x8 | x8 | x8 | x8 | x8 | x8 | x8 | x8 | x8 | x8 | [FA]2 EF [GB]4 | x8 | x8 |] %13
V:3
 B,4 B,2 A,2 | G,2 F,2 G,4 | F,4 G,4 | G,4 G,2 G,2 | F,2 G,2 G,4 | G,4 F,4 | B,4 A,2 G,2 | %7
 F,2 G,2 G,4 | A,4 B,4 | A,4 G,2 B,2 | D2 E2 D4 | D2 C2 G,4- | G,4 z4 |] %13
V:4
 G,4 G,2 D,2 | E,2 B,,2 E,4 | D,4 G,,4 | z8 | D,2 E,2 C,4 | G,,4 D,4 | E,4 F,2 z2 | D,2 B,,2 C,4 | %8
 A,,4 G,,4 | F,4 z2 E,2 | D,2 A,,2 B,,2 C,2 | D,4 G,,4- | G,,4 z4 |] %13

